X:5
T:GB/7a/5 'Twas of a Brisk and Lively Lad Version 1 of 3 
%%VWML:GB-7a-5-0
F:http://www.vwml.org/record/GB/7a/5
C:Transcribed by Simon Furey and Lewis Jones
L:1/4
M:4/4
I:linebreak $
K:A
E | E A G A | B c/d/ e e | B/c/ d B B | A3 :| c/d/ | e f e3/2 A/ |$ A F E (3c/d/e/ | f e d/c/ B | A G E F/G/ | A3/2 F/ G A | B c/d/ e e | B/c/ d B B | A3 |]

